src/static/logos/sensu.svg

<?xml version="1.0" encoding="UTF-8" standalone="no"?>
<svg width="256px" height="151px" viewBox="0 0 256 151" version="1.1" xmlns="http://www.w3.org/2000/svg" xmlns:xlink="http://www.w3.org/1999/xlink" preserveAspectRatio="xMidYMid">
    <g>
        <path d="M256,127.997935 C256,65.9482151 205.969204,0 127.701333,0 C49.4334624,0 0,66.1773763 0,127.997935 L116.530237,127.997935 L106.322581,132.012731 C106.322581,134.865204 111.641462,150.134366 128.344086,150.134366 C145.046022,150.134366 149.906581,134.048344 149.906581,132.026495 L139.813161,127.997935 L256,127.997935 L256,127.997935 Z M81.8332903,112.313118 L16.8141075,112.313118 C17.9495914,90.2633978 46.6807742,15.6937634 128.573247,15.6937634 C212.874323,15.6937634 238.766796,95.6827527 239.322839,112.313118 L174.387613,112.313118 C174.387613,112.313118 164.530237,79.0771613 128.573247,79.0771613 C92.6162581,79.0771613 81.8332903,112.313118 81.8332903,112.313118 L81.8332903,112.313118 Z" fill="#92C72E"></path>
    </g>
</svg>

<svg width="256" height="151" xmlns="http://www.w3.org/2000/svg" preserveAspectRatio="xMidYMid"><path d="M256 127.998C256 65.948 205.97 0 127.701 0 49.433 0 0 66.177 0 127.998h116.53l-10.207 4.015c0 2.852 5.318 18.121 22.021 18.121 16.702 0 21.563-16.086 21.563-18.108l-10.094-4.028H256zM81.833 112.313H16.814c1.136-22.05 29.867-96.62 111.76-96.62 84.3 0 110.193 79.99 110.749 96.62h-64.935s-9.858-33.236-45.815-33.236c-35.957 0-46.74 33.236-46.74 33.236z" fill="#92C72E"/></svg>
